!!!COM: Machaut, Guillaume de
!!!CDT: ~1300///-1377///
!!!ODT: ~1367///
!!!OTL: Hoquetus David
!!!AGN: double hocket
!!!ONB1: Based on an isorhythmically worked setting of the passage 
!!!ONB2: David from the Alleluia verse Nativitas gloriose virginis.
**kern	**kern	**kern
!tenor	!hoquetus	!triplum
*staff3	*staff2	*staff1
*Ivox	*Ivox	*Ivox
*clefF4	*clefGv2	*clefGv2
*k[f#]	*k[f#]	*k[f#]
*M9/4	*M9/4	*M9/4
*MM300	*MM300	*MM300
=1-	=1-	=1-
[1.G	4d\	4G/
.	2c\	2A/
.	2.d\	2.B\
2.G\]	2.G/	4r
.	.	2B\
=2	=2	=2
[1.A	2.r	4r
.	.	2A/
.	2.d\	2.G/
2.A\]	2.c\	2.Fn/
=3	=3	=3
[1.B	4B\	[1.E
.	4A/	.
.	4B\	.
.	1.G	.
2.B\]	.	2.E/]
=4	=4	=4
[1.B	1.E	[1.e
2.B\]	4B\	2.e\]
.	2A/	.
=5	=5	=5
2.r	4r	2.e\
.	2G/	.
2.r	2.F#/	4r
.	.	2d\
2.r	2.E/	2.c#\
=6	=6	=6
2.G\	2.r	[1.d
1.A	1.D	.
.	.	2.d\]
=7	=7	=7
2.r	2.D/	4r
.	.	2B\
2.A\	2.r	4c\
.	.	4B\
.	.	4c\
2.D\	2.d\	4r
.	.	2A/
=8	=8	=8
2.E\	2.r	4r
.	.	2G/
1.D	1.B	2.F#/
.	.	2.E/
=9	=9	=9
2.r	4c\	[1.G
.	2B\	.
1.C	2.c\	.
.	2.A/	2.G/]
=10	=10	=10
[1.E	2.r	2.r
.	2.B\	2.r
2.E\]	2.A/	2.r
=11	=11	=11
2.r	2.r	2.B\
2.r	1.G	2.r
2.r	.	2.B\
=12	=12	=12
[1.D	[1.A	2.r
.	.	2.d\
2.D\]	2.A/]	2.B\
=13	=13	=13
[1.G	2.r	4d\
.	.	4c\
.	.	4d\
.	2.r	1.B
2.G\]	2.r	.
=14	=14	=14
[1.A	4D/	2.r
.	2C/	.
.	2.D/	1.d
2.A\]	2.E/	.
=15	=15	=15
[1.F#	4F#/	2.r
.	4E/	.
.	4F#/	.
.	1.D	1.A
2.F#\]	.	.
=16	=16	=16
2.r	2.r	4E/
.	.	2F#/
2.r	2.B\	2.G/
2.r	2.A/	2.A/
=17	=17	=17
2.G\	2.r	4r
.	.	2B\
1.E	1.G	4r
.	.	2B\
.	.	2.B\
=18	=18	=18
2.r	2.A/	4r
.	.	2d\
2.D\	2.r	4r
.	.	2d\
2.C/	2.G/	2.e\
=19	=19	=19
2.BB/	2.r	2.d\
1.AA	2.A/	1.e
.	2.G/	.
=20	=20	=20
2.r	4A/	1.d
.	2G/	.
1.D	2.A/	.
.	2.Fn/	2.d\
=21	=21	=21
[1.E	2.E/	2.r
.	1.C	2.r
2.E\]	.	2.r
=22	=22	=22
2.r	4D/	2.A/
.	2C#/	.
2.r	2.D#/	1.G#
2.r	2.E/	.
=23	=23	=23
[1.F#	4F#/	2.r
.	4E/	.
.	4F#/	.
.	1.D	1.A
2.F#\]	.	.
=24	=24	=24
[1.G	2.r	2.B\
.	1.E	2.r
2.G\]	.	2.d\
=25	=25	=25
[1.F#	[1.F#	4c#\
.	.	4B\
.	.	4c#\
.	.	1.A
2.F#\]	2.F#/]	.
=26	=26	=26
[1.E	2.r	4e\
.	.	2d\
.	2.r	2.e\
2.E\]	2.r	2.B\
=27	=27	=27
2.r	4d\	2.A/
.	2c#\	.
2.r	2.d\	4r
.	.	2G/
2.r	4c#\	2.B\
.	2B\	.
=28	=28	=28
2.D\	2.A/	2.d\
1.E	1.G#	1.c#
=29	=29	=29
2.r	2.A/	4r
.	.	2A/
2.E\	2.r	4r
.	.	2c#\
2.D\	2.A/	2.d\
=30	=30	=30
2.G\	2.r	4r
.	.	2B\
1.A	1.D	4r
.	.	2d\
.	.	2.d\
=31	=31	=31
2.r	4G/	2.G/
.	4F#/	.
.	4G/	.
1.B	1.E	1.G
=32	=32	=32
[1.B	2.r	[1.E
.	1.G#	.
2.B\]	.	2.E/]
=33	=33	=33
2.r	2.r	4G/
.	.	4F#/
.	.	4G/
2.r	2.B\	4r
.	.	2E/
2.r	2.G/	2.E/
=34	=34	=34
[1.G	2.r	4r
.	.	2G/
.	1.B	2.F#/
2.G\]	.	2.E/
=35	=35	=35
[1.A	[1.A	[1.D
2.A\]	2.A/]	2.D/]
=36	=36	=36
[1.A	2.r	2.r
.	2.e\	2.r
2.A\]	2.c#\	2.r
=37	=37	=37
[1.D	4d\	2.r
.	2c#\	.
.	2.d\	1.d
2.D\]	2.B\	.
=38	=38	=38
2.r	[1.A	2.r
2.r	.	1.c#
2.r	2.A/]	.
=39	=39	=39
2.E\	2.r	4B\
.	.	2c#\
1.D	2.r	2.d\
.	2.r	2.A/
=40	=40	=40
2.r	2.B\	4r
.	.	2B\
2.C#/	2.r	4r
.	.	2A/
2.E\	2.c#\	2.G#/
=41	=41	=41
2.D\	2.r	4r
.	.	2B\
1.G	2.d\	4r
.	.	2B\
.	2.B\	2.B\
=42	=42	=42
2.r	4c\	2.E/
.	4B\	.
.	4c\	.
1.A	1.A	1.D
=43	=43	=43
[1.F#	2.r	4F#/
.	.	2G#/
.	2.c#\	2.A/
2.F#\]	2.A/	2.D/
=44	=44	=44
2.r	4e\	2.E/
.	4d\	.
.	4e\	.
2.r	1.A	1.D
2.r	.	.
=45	=45	=45
[1.G	2.r	4r
.	.	2d\
.	2.e\	4r
.	.	2c\
2.G\]	2.d\	2.B\
=46	=46	=46
[1.E	2.r	2.A/
.	2.c\	1.G
2.E\]	4B\	.
.	2c\	.
=47	=47	=47
[1.D	2.d\	[1.A
.	1.A	.
2.D\]	.	2.A/]
=48	=48	=48
[1.C	4e\	2.r
.	2d#\	.
.	2.e\	2.r
2.C/]	4dn\	2.r
.	2c\	.
=49	=49	=49
2.r	2.B\	4F#/
.	.	2G#/
2.r	1.A	2.A/
2.r	.	2.D/
=50	=50	=50
2.BB/	2.G#/	2.r
1.AA	1.A	1.E
=51	=51	=51
2.r	2.A/	4r
.	.	2A/
2.D\	2.r	4r
.	.	2A/
2.E\	2.r	2.G/
=52	=52	=52
2.F#\	2.e\	2.A/
1.G	2.d\	1.G
.	2.c\	.
=53	=53	=53
2.r	2.B\	4r
.	.	2d\
1.F#	2A/	2.c#\
.	4G#/	.
.	4A/	2.d#\
.	4G#/	.
.	4A/	.
=54	=54	=54
[1.E	2.r	[1.e
.	1.B	.
2.E\]	.	2.e\]
=55	=55	=55
2.r	2.r	2.c#\
2.r	2.c#\	2.r
2.r	2.A/	2.e\
=56	=56	=56
[1.D	2.r	4d\
.	.	4c#\
.	.	4d\
.	1.d	1.A
2.D\]	.	.
=57	=57	=57
[1.E	2.r	2.B\
.	2.c#\	2.r
2.E\]	2.B\	2.G#/
=58	=58	=58
[1.E	2.A/	4B\
.	.	2c#\
.	2G/	2.d\
.	4F#/	.
2.E\]	4G/	2B\
.	4F#/	.
.	4G/	4c#\
=59	=59	=59
[1.D	2.A/	4d\
.	.	4c#\
.	.	4d\
.	1.D	1.A
2.D\]	.	.
=60	=60	=60
2.r	4Fn/	[1.A
.	4E/	.
.	4F/	.
2.r	1.D	.
2.r	.	2.A/]
=61	=61	=61
2.G\	2.r	2.r
1.A	1.D	2.r
.	.	2.r
=62	=62	=62
2.r	2.Fn/	2.r
2.B\	2.r	2.A/
2.B\	2.E/	4r
.	.	2G#/
=63	=63	=63
2.G#\	2.r	2.G#/
1.A	1.D	4r
.	.	2B\
.	.	4r
.	.	2d\
=64	=64	=64
2.r	2.D/	4d\
.	.	4c#\
.	.	4d\
1.A	2.r	1.A
.	2.r	.
=65	=65	=65
[1.D	4d\	4A/
.	2c#\	2B\
.	2.d\	2.A/
2.D\]	2.B\	4r
.	.	2G#/
=66	=66	=66
2.r	4r	2.A/
.	2A/	.
2.r	2.G/	4r
.	.	2B\
2.r	2.Fn/	2.c\
=67	=67	=67
[1.E	2.E/	4B\
.	.	4A/
.	.	4B\
.	1.C#	1.G#
2.E\]	.	.
=68	=68	=68
[1.D	2.r	4A/
.	.	4G#/
.	.	4A/
.	1.D	4r
.	.	2D/
2.D\]	.	2.A/
=69	=69	=69
[1.C	2.r	4r
.	.	2c\
.	1.Fn	4r
.	.	2B\
2.C/]	.	2.A/
=70	=70	=70
[1.E	[1.E	[1.B
2.E\]	2.E/]	2.B\]
=71	=71	=71
2.r	4e\	2.A/
.	4d\	.
.	4e\	.
2.r	2.c#\	4r
.	.	2A/
2.r	4r	2.E/
.	2e\	.
=72	=72	=72
2.D\	4r	4A/
.	2d\	4G/
.	.	4A/
1.G	2.c\	4r
.	.	2E/
.	2.B\	2.E/
=73	=73	=73
2.r	2.A/	4r
.	.	2D/
2.A\	2.r	2.D/
2.F#\	2.A/	2.r
=74	=74	=74
2.G\	2.r	4c#\
.	.	2d\
1.E	2.B\	2.e\
.	2.G#/	2.B\
=75	=75	=75
2.r	[1.A	4c#\
.	.	4B\
.	.	4c#\
1.D	.	2.d\
.	2.A/]	2.A/
=76	=76	=76
[1.C	2.r	4r
.	.	2G/
.	2.r	2.Fn/
2.C/]	2.r	2.E/
=77	=77	=77
2.r	4A/	[1.D
.	2G#/	.
2.r	2.A/	.
2.r	4F#/	2.D/]
.	2G#/	.
=78	=78	=78
[1.BB	2.A/	2.r
.	1.G#	2.r
2.BB/]	.	2.r
=79	=79	=79
[1.AA	[1.A	2.r
.	.	1.E
2.AA/]	2.A/]	.
=80	=80	=80
[1.D	2.B\	2.r
.	1.A	1.Fn
2.D\]	.	.
=81	=81	=81
[1.E	4e\	[1.E
.	2d\	.
.	2.e\	.
2.E\]	2.c#\	2.E/]
=82	=82	=82
2.r	2.r	2.G#/
2.r	2.B\	2.r
2.r	2.A/	2.A/
=83	=83	=83
2.F#\	2.r	4r
.	.	2A/
1.G	1.B	4r
.	.	2E/
.	.	2.E/
=84	=84	=84
2.r	2.d\	4r
.	.	2D/
2.Fn\	2.r	4r
.	.	2D/
2.E\	2.c\	2.E/
=85	=85	=85
2.D\	2.r	4A/
.	.	4G/
.	.	4A/
1.E	2.B\	1.E
.	2.A/	.
=86	=86	=86
2.r	2.A/	2.E/
1.E	4G#/	2.r
.	2F#/	.
.	2.G#/	2.C#/
=87	=87	=87
[1.D	[1.A	[1.D
2.D\]	2.A/]	2.D/]
=88	=88	=88
2.r	4c\	4r
.	2d\	2A/
2.r	2.e\	2.G/
2.r	2.d\	2.Fn/
=89	=89	=89
[1.G	2.c\	2.r
.	1.B	1.E
2.G\]	.	.
=90	=90	=90
[1.A	[1.A	2.D/
.	.	1.Fn
2.A\]	2.A/]	.
=91	=91	=91
[1.B	2.r	[1.E
.	2.r	.
2.B\]	2.r	2.E/]
=92	=92	=92
[1.B	2.r	2.r
.	1.E	2.r
2.B\]	.	2.r
=93	=93	=93
[1.G	2.r	2.E/
.	1.B	2.r
2.G\]	.	2.E/
=94	=94	=94
[1.A	2.r	4F#/
.	.	4E/
.	.	4F#/
.	2.G/	1.D
2.A\]	2.A/	.
=95	=95	=95
[1.A	2.r	2.F#/
.	2.c#\	2.r
2.A\]	4B\	2.E/
.	2c#\	.
=96	=96	=96
[1.D	2.d\	4r
.	.	2A/
.	2.A/	4r
.	.	2A/
2.D\]	2.r	2.B\
=97	=97	=97
2.r	[2.d\	4r
.	.	2G/
2.r	2d\]	2.F#/
.	4c#\	.
2.r	2B\	2.E/
.	4c#\	.
=98	=98	=98
[1.E	2.A/	2.r
.	1.G#	1.c#
2.E\]	.	.
=99	=99	=99
[1.D	1.A	2.d\
.	.	4c\
.	.	4B\
.	.	4c\
2.D\]	2.r	2.A/
=100	=100	=100
[1.C	4e\	4G/
.	2d\	4F#/
.	.	4G/
.	2.e\	1.E
2.C/]	2.c\	.
=101	=101	=101
[1.E	2.B\	4r
.	.	2G/
.	2.A/	4r
.	.	2A/
2.E\]	2.G#/	2.B\
=102	=102	=102
[1.D	2.A/	[1.A
.	2.d\	.
2.D\]	2.c\	2.A/]
=103	=103	=103
[1.G	[1.B	2.r
.	.	2.r
2.G\]	2.B\]	2.r
=104	=104	=104
[1.A	4c#\	2.r
.	4B\	.
.	4c#\	.
.	1.A	1.D
2.A\]	.	.
=105	=105	=105
[1.F#	2.r	2.D/
.	2.c#\	2.r
2.F#\]	2.B\	2.D/
=106	=106	=106
2.r	4c#\	4r
.	4B\	2c#\
.	4c#\	.
2.r	2.A/	2.d\
2.r	4G#/	2.c#\
.	2A/	.
=107	=107	=107
[1.G	2.B\	4d\
.	.	4c#\
.	.	4d\
.	2.r	1.B
2.G\]	2.r	.
=108	=108	=108
[1.E	2.r	2.c#\
.	1.G#	2.r
2.E\]	.	2.c#\
=109	=109	=109
[1.D	2.r	2.d\
.	1.A	2.r
2.D\]	.	2.d\
=110	=110	=110
[1.C	2.r	4r
.	.	2G/
.	2.B\	4r
.	.	2G/
2.C/]	2.A/	2.A/
=111	=111	=111
[1.BB	2.r	2.B\
.	1.G#	2.r
2.BB/]	.	2.B\
=112	=112	=112
[1.AA	1.A	2.A/
.	.	2.E/
2.AA/]	2.G#/	2.r
=113	=113	=113
1.D	4A/	2.d\
.	2G#/	.
.	2.A/	1.c
2.D\	2.F#/	.
=114	=114	=114
[1.E	[1.E	[1.B
2.E\]	2.E/]	2.B\]
=115	=115	=115
2.r	2.e\	4r
.	.	2A/
2.r	2d\	2.B\
.	4c\	.
2.r	4d\	2.G/
.	4c\	.
.	4d\	.
=116	=116	=116
[1.F#	2.r	[1.A
.	1.e	.
2.F#\]	.	2.A/]
=117	=117	=117
[1.G	2.r	2.r
.	2.d\	2.r
2.G\]	2.B\	2.r
=118	=118	=118
[1.F#	4c#\	2.r
.	4B\	.
.	4c#\	.
.	1.A	1.D
2.F#\]	.	.
=119	=119	=119
[1.E	2.r	2.E/
.	1.c	2.r
2.E\]	.	2.G#/
=120	=120	=120
[1.D	4d\	4r
.	2c#\	2A/
.	2.d\	4r
.	.	2G#/
2.D\]	4c#\	2.A/
.	2B\	.
=121	=121	=121
[1.E	4c#\	4r
.	4B\	2e\
.	4c#\	.
.	2.A/	4r
.	.	2f#\
2.E\]	4r	2.e\
.	2B\	.
=122	=122	=122
[1.E	2.A/	2.d\
.	1.G#	1.c#
2.E\]	.	.
=123	=123	=123
[1.D	[1.A	[1.d
2.D\]	2.A/]	2.d\]
==	==	==
*-	*-	*-
!!!ENC: Craig Stuart Sapp
!!!END: 2004/11/09/
